icons/breezeDark/actions/24/list-remove.svg

<svg viewBox="0 0 24 24" xmlns="http://www.w3.org/2000/svg"><path d="m13 5c-2.027598 0-3.87132.756694-5.28125 2-.126239.11132-.25603.22478-.375.34375l-.34375.375c-1.243306 1.40993-2 3.253652-2 5.28125 0 4.41828 3.58172 8 8 8 2.027598 0 3.87132-.756694 5.28125-2l.375-.34375c.11897-.11897.23243-.248761.34375-.375 1.243306-1.40993 2-3.253652 2-5.28125 0-4.41828-3.58172-8-8-8zm0 1c3.86599 0 7 3.13401 7 7 0 1.75366-.653215 3.334268-1.71875 4.5625l-9.84375-9.84375c1.228231-1.065535 2.80884-1.71875 4.5625-1.71875zm-5.28125 2.4375 9.84375 9.84375c-1.228232 1.065535-2.80884 1.71875-4.5625 1.71875-3.86599 0-7-3.13401-7-7 0-1.75366.653215-3.334269 1.71875-4.5625z" fill="#da4453"/></svg>

<svg xmlns="http://www.w3.org/2000/svg" viewBox="0 0 24 24">
  <defs id="defs3051">
    <style type="text/css" id="current-color-scheme">
      .ColorScheme-NegativeText {
        color:#da4453;
      }
      </style>
  </defs>
  <path
     style="fill:currentColor;fill-opacity:1;stroke:none" 
     d="M 13 5 C 10.972402 5 9.12868 5.756694 7.71875 7 C 7.592511 7.11132 7.46272 7.22478 7.34375 7.34375 L 7 7.71875 C 5.756694 9.12868 5 10.972402 5 13 C 5 17.41828 8.58172 21 13 21 C 15.027598 21 16.87132 20.243306 18.28125 19 L 18.65625 18.65625 C 18.77522 18.53728 18.88868 18.407489 19 18.28125 C 20.243306 16.87132 21 15.027598 21 13 C 21 8.58172 17.41828 5 13 5 z M 13 6 C 16.86599 6 20 9.13401 20 13 C 20 14.75366 19.346785 16.334268 18.28125 17.5625 L 8.4375 7.71875 C 9.665731 6.653215 11.24634 6 13 6 z M 7.71875 8.4375 L 17.5625 18.28125 C 16.334268 19.346785 14.75366 20 13 20 C 9.13401 20 6 16.86599 6 13 C 6 11.24634 6.653215 9.665731 7.71875 8.4375 z "
     class="ColorScheme-NegativeText"
     />
</svg>
